X: 20441
T: John Joe Gannon's
R: hornpipe
M: 4/4
K: Amajor
|:(3EFG|A2 A>G A>ce>c|d>cB>A G>AB>c|e>ag>f e>dc>d|(3efe f>e d>BG>E|
A2 A>G A>ce>c|d>cB>A G>AB>c|e>ag>f e>EF>G|(3BcB A>G A2:|
|:c>d|(3efe c>e a>ec>A|(3BcB F>A B>AG>F|E>ec>e d>EF>G|A>c (3BAG A>E[Cc]>E|
A>EF>G A>ce>c|d>cB>A (3GAG B>c|e>ag>f e>EF>G|(3BcB A>G A2:|

